world_stage/static/flags/rect/tza.svg

<svg height="600" viewBox="0 0 900 600" width="900" xmlns="http://www.w3.org/2000/svg" xmlns:xlink="http://www.w3.org/1999/xlink"><clipPath id="a"><path d="m0 .001h675v449.999h-675z" transform="translate(-.0002 .000503)"/></clipPath><clipPath id="b"><path d="m0 .001h675v449.999h-675z" transform="translate(-.0002 .000503)"/></clipPath><path d="m0 0v-449.999h.003l674.997 449.999z" fill="#1eb53a" transform="scale(1.3333333 -1.3333333)"/><path d="m0 0-674.997-449.999h674.997z" fill="#00a3dd" transform="matrix(1.3333333 0 0 -1.3333333 900 0)"/><path d="m0 0-674.997-449.999z" transform="matrix(1.3333333 0 0 -1.3333333 900 0)"/><path clip-path="url(#a)" d="m0 0 675 450" fill="none" stroke="#fcd116" stroke-width="178.125" transform="matrix(1.3333333 0 0 -1.3333333 .000267 600.00067)"/><path d="m0 0-674.997-449.999z" transform="matrix(1.3333333 0 0 -1.3333333 900 0)"/><path clip-path="url(#b)" d="m0 0 675 450" fill="none" stroke="#000" stroke-width="121.875" transform="matrix(1.3333333 0 0 -1.3333333 .000267 600.00067)"/></svg>

<?xml version="1.0" encoding="UTF-8" standalone="no"?>
<!-- Created with Inkscape (http://www.inkscape.org/) -->

<svg
   version="1.1"
   id="svg1"
   width="900"
   height="600"
   viewBox="0 0 900 600"
   sodipodi:docname="tz.ai"
   xmlns:inkscape="http://www.inkscape.org/namespaces/inkscape"
   xmlns:sodipodi="http://sodipodi.sourceforge.net/DTD/sodipodi-0.dtd"
   xmlns="http://www.w3.org/2000/svg"
   xmlns:svg="http://www.w3.org/2000/svg">
  <defs
     id="defs1">
    <clipPath
       clipPathUnits="userSpaceOnUse"
       id="clipPath5">
      <path
         d="M 0,0.001 H 675 V 450 H 0 Z"
         transform="translate(-2.0000001e-4,5.0250001e-4)"
         id="path5" />
    </clipPath>
    <clipPath
       clipPathUnits="userSpaceOnUse"
       id="clipPath8">
      <path
         d="M 0,0.001 H 675 V 450 H 0 Z"
         transform="translate(-2.0000001e-4,5.0250001e-4)"
         id="path8" />
    </clipPath>
  </defs>
  <sodipodi:namedview
     id="namedview1"
     pagecolor="#ffffff"
     bordercolor="#000000"
     borderopacity="0.25"
     inkscape:showpageshadow="2"
     inkscape:pageopacity="0.0"
     inkscape:pagecheckerboard="0"
     inkscape:deskcolor="#d1d1d1">
    <inkscape:page
       x="0"
       y="0"
       inkscape:label="1"
       id="page1"
       width="900"
       height="600"
       margin="0"
       bleed="0" />
  </sodipodi:namedview>
  <g
     id="layer-MC0"
     inkscape:groupmode="layer"
     inkscape:label="Layer 1">
    <path
       id="path1"
       d="M 0,0 V -449.999 H 0.003 L 675,0 Z"
       style="fill:#1eb53a;fill-opacity:1;fill-rule:nonzero;stroke:none"
       transform="scale(1.3333333,-1.3333333)" />
    <path
       id="path2"
       d="M 0,0 -674.997,-449.999 H 0 Z"
       style="fill:#00a3dd;fill-opacity:1;fill-rule:nonzero;stroke:none"
       transform="matrix(1.3333333,0,0,-1.3333333,900,0)" />
    <path
       id="path3"
       d="M 0,0 -674.997,-449.999 Z"
       style="fill:#000000;fill-opacity:1;fill-rule:nonzero;stroke:none"
       transform="matrix(1.3333333,0,0,-1.3333333,900,0)" />
    <path
       id="path4"
       d="M 0,0 675,450"
       style="fill:none;stroke:#fcd116;stroke-width:178.125;stroke-linecap:butt;stroke-linejoin:miter;stroke-miterlimit:4;stroke-dasharray:none;stroke-opacity:1"
       transform="matrix(1.3333333,0,0,-1.3333333,2.6666667e-4,600.00067)"
       clip-path="url(#clipPath5)" />
    <path
       id="path6"
       d="M 0,0 -674.997,-449.999 Z"
       style="fill:#000000;fill-opacity:1;fill-rule:nonzero;stroke:none"
       transform="matrix(1.3333333,0,0,-1.3333333,900,0)" />
    <path
       id="path7"
       d="M 0,0 675,450"
       style="fill:none;stroke:#000000;stroke-width:121.875;stroke-linecap:butt;stroke-linejoin:miter;stroke-miterlimit:4;stroke-dasharray:none;stroke-opacity:1"
       transform="matrix(1.3333333,0,0,-1.3333333,2.6666667e-4,600.00067)"
       clip-path="url(#clipPath8)" />
  </g>
</svg>
